X:5347
T:Queen of the West
O:england
N:IrTrad, 6/99
R:Hornpipe
M:4/4
K:D
DFAF EFA,2 | EGAG EFA,E | FAdF GBec | Adfd (3cBA (3GFE |
DFAF EFA,2 | EGAG EGA,E | FAdF GBec |1 Ad2c dA (3GFE :|2 Ad2c dfgf ||
eA (3cBA EAce | fd (3cBA FAdf | g2eg fedf | (3edc (3dcB A2cd |
eA (3cBA EAce | fd (3cBA FADf | (3gag eg fedf | (3efe ce dAcd |
eA (3cBA EAce | fd (3cBA FAdf | g2eg fedf | ea^gb a3 d |
eA (3cBA EAce | fd (3cBA FADf | g2eg fedf | (3efe ce d4 ||


